!!!!SEGMENT: pl-wtm--r-2303_troschel-wilhelm--addio-giorni-felici.krn
!!!cenid: 18xx:2262
!!!COM: Troschel, Wilhelm
!!!COM-rismid: pe30024099
!!!CDT: 1823/08/23-1887/03/02
!!!CNT: Polish
!!!OTL: Addio giorni felici
!!!PDT:
!!!AGN:
!!!SMS-siglum: PL-Wtm
!!!SMS-shelfmark: R 2303
!!!SMS-shelfwork: W
!!!SMS-variant:
!!!SMS-altvar:
!!!NIFC-rismid: 1001114062
!!!URL-scan: http://repozytorium.nifc.pl/skany/pl-wtm-nut--r2303
!!!ONB-nifc:
!!!OMD: Andante
**kern	**dynam	**kern	**dynam	**kern	**text	**text	**dynam
*group1	*	*group1	*	*	*	*	*
*I""4 Violincelle	*	*I""4 Violincelle	*	*	*	*	*
*part3	*part3	*part2	*part2	*part1	*part1	*part1	*part1
*staff3	*	*staff2	*	*staff1	*staff1	*staff1	*
*	*	*	*	*I"Śpiew	*	*	*
*clefF4	*	*clefG2	*	*clefF4	*	*	*
*k[b-e-a-d-]	*	*k[b-e-a-d-]	*	*k[b-e-a-d-]	*	*	*
*M3/4	*	*M3/4	*	*M3/4	*	*	*
*>[A,A1,A,A2,B]	*	*>[A,A1,A,A2,B]	*	*>[A,A1,A,A2,B]	*	*	*
=1	=1	=1	=1	=1	=1	=1	=1
*>A	*	*>A	*	*>A	*	*	*
*all\right	*	*all\right	*	*all\right	*	*	*
!LO:TX:b:t=segno	!	!LO:TX:b:t=segno	!	!LO:TX:t=segno	!	!	!
!	!	!LO:TX:a:i:t=Cantabile	!LO:DY:rj	!	!	!	!
4.AA-\ 4.A-	.	(>4.c/ 4.e-	p <	2.r	.	.	.
8AA-\L 8E-	.	8A-/L 8c	.	.	.	.	.
8AA-\ 8Dn	.	8Bn/ 8g	[	.	.	.	.
8AA-\J 8D	.	8B/J) 8f	.	.	.	.	.
=2	=2	=2	=2	=2	=2	=2	=2
4.AA-\ 4.E-	.	(>4.c/ 4.e-	<	2.r	.	.	.
8AA-\L 8C	.	8E-</L 8A-<	[	.	.	.	.
8AA-\ 8F	.	8A-</ 8d-<	.	.	.	.	.
8AA-\J 8E-	.	8A-</J) 8c<	.	.	.	.	.
=3	=3	=3	=3	=3	=3	=3	=3
4.EE-\ 4.D-	.	(>4.G</ 4.B-<	<	2.r	.	.	.
8EE-\L 8C	.	8F#X</L 8An<	[	.	.	.	.
8EE-\ 8D-	.	8G</ 8B-<	.	.	.	.	.
8EE-\J 8D-	.	8G</J) 8fn<	.	.	.	.	.
=4	=4	=4	=4	=4	=4	=4	=4
*2\right	*	*	*	*	*	*	*
!	!	!	!	!LO:TX:i:t=Muzyka Wilhelma Troschel	!	!	!
2AA-^^<\ 2BBn	.	2A-<^^>/ 2dn<	.	2.r	.	.	.
4AA-\ 4C	.	4A-</ 4e-<	.	.	.	.	.
=5	=5	=5	=5	=5	=5	=5	=5
*^	*^	*^	*	*	*	*	*
!	!	!	!LO:DY:a	!	!	!LO:DY:a	!	!	!	!
(8.E-/L	4FF\	>	fz	(8.g-X/L	4An\	fz	2.r	.	.	.
16D-/Jk	.	.	.	16f/Jk	.	.	.	.	.	.
8C'/	8FF'\	]	.	8e-'/	8A\	.	.	.	.	.
8C/L	[>8FF\	<	.	8e-/L	[>8A\	.	.	.	.	.
8D-/)	4FF\]	.	.	8d-/)	4A\]	.	.	.	.	.
8E-/J	.	[	.	8c/J	.	.	.	.	.	.
*	*	*v	*v	*	*	*	*	*	*	*
!!LO:LB:g=original
=6	=6	=6	=6	=6	=6	=6	=6	=6	=6
2G-X/	2AAn^^<\	>	2c^^/ 2e-	2ryy	.	2.r	.	.	.
4F/	4BB-\	]	4d-/	4B-\	.	.	.	.	.
=7	=7	=7	=7	=7	=7	=7	=7	=7	=7
*	*	*^	*	*	*	*	*	*	*
!	!	!	!LO:DY:a	!	!	!LO:DY:a	!	!	!	!
8.F/L	4GG\	>	fz	(8.a-/L	4Bn\	fz	2.r	.	.	.
16E-/Jk	.	.	.	16g/Jk	.	.	.	.	.	.
8Dn/	8GG\	]	.	8f/	8B\	.	.	.	.	.
8D/L	8GG\	<	.	8f/L	[>8B\	.	.	.	.	.
8E-/	4GG\	.	.	8e-/	4B\]	.	.	.	.	.
8F/J	.	[	.	8dn/J)	.	.	.	.	.	.
*	*	*v	*v	*	*	*	*	*	*	*
=8	=8	=8	=8	=8	=8	=8	=8	=8	=8
2A-/	2BBn^^\	>	2dn^^/ 2f	2ryy	.	2.r	.	.	.
4G/	4C\	]]	4e-/	4c\	.	.	.	.	.
=9	=9	=9	=9	=9	=9	=9	=9	=9	=9
4.G/	4.BB-\	.	(4.e-/	4.d-\	<	2.r	.	.	.
8BB-\L 8G	4.ryy	.	8en/L	8d-\L	[	.	.	.	.
.	.	.	8qg/	.	.	.	.	.	.
8EE-\ 8G	.	.	8f/	8d-\	.	.	.	.	.
8EE-\J 8G	.	.	8e-X/J)	8d-\J	.	.	.	.	.
*	*	*	*v	*v	*	*	*	*	*
=10	=10	=10	=10	=10	=10	=10	=10	=10
!	!	!	!	!LO:DY:rj	!	!	!	!
4.A-/	4.AA-\	.	(>4.c/ 4.e-	f	2.r	.	.	.
8AA-^^>\L 8E-	4.ryy	.	8c^^</L 8a-	.	.	.	.	.
8DDn^^>\ 8BBn	.	.	8A-^^</) 8g	.	.	.	.	.
8DD^^>\J 8BB	.	.	8A-^^</J 8f	.	.	.	.	.
*v	*v	*	*	*	*	*	*	*
!!LO:LB:g=original
=11	=11	=11	=11	=11	=11	=11	=11
4.EE-/ 4.C	.	4.A-/ 4.e-	.	2.r	.	.	.
8EE-\L 8AAn	.	8G-X</L 8c	>	.	.	.	.
8EE-\ 8BB-	.	8F</ 8d-	.	.	.	.	.
8EE-\J 8D-	.	8Gn</J 8B-	]]	.	.	.	.
=12	=12	=12	=12	=12	=12	=12	=12
*^	*	*^	*	*	*	*	*
4C/	4AA-\	.	4A-/	4A-\	.	2.r	.	.	.
4r	4ryy	.	4r	4ryy	.	.	.	.	.
!	!	!	!	!	!LO:DY:rj	!	!	!	!
4E-/	4AA-\	.	(>4e-/	4c\	p	.	.	.	.
=13	=13	=13	=13	=13	=13	=13	=13	=13	=13
*	*	*	*	*2\right	*	*	*	*	*
2E-/	2AA-;<\	.	2a-;>/)	2c\	.	4r;>	.	.	.
.	.	.	.	.	.	4r;>	.	.	.
!	!	!	!	!	!	!	!	!	!LO:DY:b:rj
4r	4ryy	.	4r	4ryy	.	8r	.	.	p
.	.	.	.	.	.	8c\	ad-	.	.
*v	*v	*	*	*	*	*	*	*	*
*	*	*v	*v	*	*	*	*	*
=14	=14	=14	=14	=14	=14	=14	=14
*	*	*	*	*2\right	*	*	*
!	!	!	!LO:DY:rj	!	!	!	!LO:HP:b
4.AA-/ 4.F	.	4.A-</ 4.d-	p <	2.d-\	-di-	.	<[
8AA-\L 8F	.	8A-/L 8d-	.	.	.	.	.
8AA-\ 8En	.	8G/ 8d-	.	.	.	.	.
8AA-\J 8E	.	8G/J 8d-	.	.	.	.	.
=15	=15	=15	=15	=15	=15	=15	=15
*^	*	*	*	*	*	*	*
2E-X/	2AA-\	.	2A-/ 2c	[	4c\	-o	.	.
.	.	.	.	.	4r	.	.	.
4F/	4FF\	.	4A-/ 4c	.	4c\	ad-	.	.
*v	*v	*	*	*	*	*	*	*
!!LO:PB:g=original
=16	=16	=16	=16	=16	=16	=16	=16
4.CC\ 4.En	.	4.G</ 4.c	.	[2c\	-di-	.	.
8CC\L 8E	.	8G</L 8c	.	.	.	.	.
8EE-\ 8E-X	.	8G</ 8c	.	8c\L]	.	.	.
!	!	!	!	!	!	!	!LO:HP:b
8EE-\J 8D-	.	8G</J 8B-	>]	8B-\J	.	.	>
=17	=17	=17	=17	=17	=17	=17	=17
*	*	*^	*	*	*	*	*
2AA-\ 2C	.	2A-</	2A-<\	.	2A-\	-o	.	]
4r	.	4r	4ryy	.	4r	.	.	.
*	*	*v	*v	*	*	*	*	*
=18	=18	=18	=18	=18	=18	=18	=18
2AA-\ 2C	.	2E-</ 2A-<	.	2A-\	gior-	al-	.
8BB-\L 8D-	.	8E-</L 8G<	.	8G\	-ni	-ma	.
8AA-\J 8C	.	8E-</J 8A-<	.	8A-\	fe-	gen-	.
=19	=19	=19	=19	=19	=19	=19	=19
2.EE-\ 2.E-	.	4F#X</ 4An<	.	4An\	-li-	-ti-	.
.	.	2G</ 2B<-	.	4B-\	-ci	-le	.
.	.	.	.	8r	.	.	.
.	.	.	.	8B-\	pas-	ad-	.
=20	=20	=20	=20	=20	=20	=20	=20
4.AA-\ 4.E-	.	4.A-</ 4.c<	<	4.c\	-ſa-	-dio	<
8GG\L 8G	.	(>8B-</L 8e-<	[	(8e-\	-ti in	pu-	[
8FF\ 8F	.	8A-</ 8dn<	.	8dn\	un	-pil-	.
8EE-\J 8E-	.	8G</J) 8c<	.	8c\)	ba-	-le a-	.
!!LO:LB:g=original
=21	=21	=21	=21	=21	=21	=21	=21
2DDn\ 2Dn	.	2F</ 2B-<	>	(2B-\	-le-	-ma-	.
4BBn\ 4D	.	4F</ 4A-<	]]	4A-\)	-[[no]]-	.	.
=22	=22	=22	=22	=22	=22	=22	=22
2C\	.	2E-</ 2G<	.	2G\	-no	-te	.
4C\	.	4E-</ 4G<	.	4G\	ad-	ad-	.
=23	=23	=23	=23	=23	=23	=23	=23
2.AA-^^<\	.	2.F<^^>/ 2.c-X<	.	2c-X^^>\	-di-	-di-	.
.	.	.	.	4C-X/	-o	-o	.
=24	=24	=24	=24	=24	=24	=24	=24
!	!	!	!	!LO:TX:t=P:problem:kasownik nad obiegnikiem	!	!	!LO:HP:b
2BB-\ 2E-	.	2G</ 2B-<	>	2BB-SSs/	ad-	ad-	>
8BB-\L 8G-X	.	8An</L 8c<	]	8C/L	-di-	-di-	]
8BB-\J 8F	.	8A-X</J 8dn<	.	8Dn/J	.	.	.
=25	=25	=25	=25	=25	=25	=25	=25
*	*	*^	*	*	*	*	*
2.EE-\ 2.E-	.	(>2e-</	2.G</	.	2E-\	-o	-o.	.
.	.	4d-X</)	.	.	4r	.	.	.
*	*	*v	*v	*	*	*	*	*
!!LO:LB:g=original
=26	=26	=26	=26	=26	=26	=26	=26
!	!	!	!	!	!	!	!LO:DY:b:rj
2AA-\ 2E-	.	2A-</ 2c<	p <	4E-\	del-	che	p
.	.	.	.	8E-\	-la	pian-	<
.	.	.	.	8E-\	mia	-ge-	.
.	.	.	.	8qG/	.	.	[
8AA-\L 8F	.	8A-</L 8d-<	[	8F\	pa-	-re	.
8AA-\J 8G	.	8B-</J 8d-<	.	8E-\	-tria_in	mi	.
=27	=27	=27	=27	=27	=27	=27	=27
4.AA-\ 4.E- 4.A-	.	4.A-</ 4.c<	.	(4.E-\	se-	fa-	.
8AA-\L 8E-	.	8A-</L 8c<	.	8A-\)	.	.	.
8EE-\ 8E-	.	8G</ 8d-X<	.	8B-\	-ne	-te	.
8AA-\J 8E-	.	8G-X</J 8c<	.	8c\	in	l'e-	.
=28	=28	=28	=28	=28	=28	=28	=28
!	!	!	!	!	!	!	!LO:DY:b:RJ
4.AA-\ 4.F	.	4.A-</ 4.d-<	f	4.e-\	sen-	-si-	f
8AA-\L 8F	.	8A-</L 8a-	>	8d-\	-d'un	-glio	>
8AA-\ 8F-X	.	8A-</ 8d-<	.	8A-\	pu-	mio	.
8AA-\J 8F-	.	8Gn</J 8d-<	]]	8B-\	-ro_a-	cru-	]]
=29	=29	=29	=29	=29	=29	=29	=29
!	!	!	!	!	!	!	!LO:HP:b
2AA-\ 2E-	.	2A-</ 2c<	<	2c\	-mor	-del	<
4AA-\ 4E-	.	4Gn</ 4c<	[	4ryy	.	.	[
!!LO:PB:g=original
=30	=30	=30	=30	=30	=30	=30	=30
4.AAn\ 4.E-	.	4.G-X</ 4.c<	f	4c\	del-	che	.
.	.	.	<	8G-X\	-la	pian-	.
8AA\L 8E-	.	8F</L 8c<	.	8F\	mia	-ge-	.
8FF\ 8E-	.	8An</ 8c<	[	8An\	pa-	-re	.
8FF\J 8E-	.	8A</J 8c<	.	8c\	-tria_in	mi	.
=31	=31	=31	=31	=31	=31	=31	=31
!	!	!	!LO:DY:rj	!	!	!	!
4.AAn^^>\ 4.G-X	.	4.c/ 4.e-	ff	(>4.e-^^>\	se-	fa-	.
(>8BB-\L 8F	.	(<8B-/L 8d-	.	8d-\)	.	.	.
8C\ 8An	.	8e-/ 8g-X	.	8c\L	-no	-te	.
8D-\J) 8B-	.	8d-/J) 8f	.	8B-\J	in	l'e-	.
=32	=32	=32	=32	=32	=32	=32	=32
*^	*	*	*	*	*	*	*
4c-X/	4Dn\	.	4f/ 4a-	.	4.A-\	sen	-si-	.
!LO:TX:t=P:problem:mixed beam	!	!	!	!	!	!	!	!
8cn/L	8E-\L	.	8e-/L 8a-	.	.	.	.	.
8B-/	8F\	.	8dn/ 8a-	.	8B-\	d'un	-glio	.
8c-X/	8E-\	.	8dn/ 8a-	>	8F\	pu-	mio	>
8B-/J	8EE-/J	.	8d-X/J 8g	]]	8G\	-ro a-	cru-	]]
=33	=33	=33	=33	=33	=33	=33	=33	=33
4A-/	4AA-\	.	4c/ 4a-	.	8A-,\	-mor	-del	.
.	.	.	.	.	2A-\	ah	ah	.
4r	4ryy	.	4r	.	.	.	.	.
4r	4ryy	.	4r	.	.	.	.	.
.	.	.	.	.	8A-\	io	da	.
*v	*v	*	*	*	*	*	*	*
!!LO:LB:g=original
=34	=34	=34	=34	=34	=34	=34	=34
*	*	*	*	*^	*	*	*
!	!	!	!LO:DY:rj	!LO:TX:b:i:t=dolce	!	!	!	!
2En\	.	8r	p	(>4.G#X\	4.ryy	par-	voi	.
!	!	!LO:TX:a:i:t=legato&colon;	!	!	!	!	!	!
.	.	8G#X</L 8Bn< 8en	.	.	.	.	.	.
.	.	8G#</ 8B< 8e	.	.	.	.	.	.
.	.	8G#</J 8B< 8e	.	16An/LL	16An\LL	-to	lon-	.
.	.	.	.	16G#/JJ	16G#\JJ	.	.	.
4EEn/	.	8r	.	8F##X\	4ryy	ma il	-ta-	.
.	.	8G#</ 8B< 8e	.	8G#\)	.	mio	-no o-	.
*	*	*	*	*v	*v	*	*	*
=35	=35	=35	=35	=35	=35	=35	=35
2BBn\	.	8r	.	(>2Bn\	cuo-	-guo-	.
.	.	8F#X</L 8An< 8en	.	.	.	.	.
.	.	8F#</ 8A< 8e	.	.	.	.	.
.	.	8F#</J 8A< 8e	.	.	.	.	.
4BB\	.	8r	.	8F#X\)	-re	-ra	.
.	.	8An</ 8Bn< 8d#X	.	16r	.	.	.
.	.	.	.	16F#\	con	io	.
=36	=36	=36	=36	=36	=36	=36	=36
2En\	.	8r	.	4.G#X\	voi	pen-	.
.	.	8G#X</L 8Bn< 8en	.	.	.	.	.
.	.	8G#</ 8B< 8e	.	.	.	.	.
.	.	8G#</J 8B< 8e	.	16En\LL	con	-se-	.
.	.	.	.	16F#X\JJ	.	.	.
4C#X\	.	8r	.	8G#\	voi	-rò	.
.	.	8G#X</ 8c#X 8e	.	16F#\LL	qui	a'	.
.	.	.	.	16E\JJ	.	quel	.
=37	=37	=37	=37	=37	=37	=37	=37
2GG#X\	.	8r<	.	8D#X\L	res-	gior-	.
.	.	8G#X</L 8B#X< 8d#X<	.	16F#X\L	.	.	.
.	.	.	.	16En\JJ	.	.	.
.	.	8G#</ 8B#< 8d#<	.	4D#\	-ta	-no	.
.	.	8G#</J 8B#< 8d#<	.	.	.	.	.
4GG#\	.	8r<	.	4r	.	.	.
.	.	8G#</ 8B#< 8d#<	.	.	.	.	.
!!LO:LB:g=original
=38	=38	=38	=38	=38	=38	=38	=38
2BBn\	.	8r<	.	(4F#X\	e	chea	.
.	.	8An</L 8Bn< 8d#X<	<	.	.	.	.
!	!	!	!	!	!	!	!LO:DY:a
.	.	8A</ 8B< 8d#<	.	8G#X\	co-	voi	<
.	.	8A</J 8B< 8d#<	.	8F#\	-me_un	fa-	.
4BB\	.	8r<	[	8.An\)	om-	-rò	[
.	.	8A</ 8B< 8d#<	.	.	.	.	.
.	.	.	.	16c#X\	-bra	ri-	.
=39	=39	=39	=39	=39	=39	=39	=39
!	!	!	!	!	!	!	!LO:DY:b
2En\	.	8r<	.	4.A#X\	mei-	-tor-	fz
.	.	8F##X</L 8c#X< 8en<	.	.	.	.	.
.	.	8F##</ 8c#< 8e<	.	.	.	.	.
.	.	8F##</J 8A#X< 8e<	.	16Bn\LL	.	.	.
.	.	.	.	16d-\JJ	.	.	.
4EEn/	.	8r<	.	8B\	-ta	-no	.
.	.	8G#X</ 8Bn< 8en<	.	8en\	sa-	per	.
=40	=40	=40	=40	=40	=40	=40	=40
2BBn\	.	8r	.	4.d#X\	-rò_in	non	.
.	.	8An</L 8Bn< 8d#X<	.	.	.	.	.
.	.	8A</ 8B< 8d#<	.	.	.	.	.
.	.	8A</J 8B< 8d#<	.	16c#X\LL	e-	par-	.
.	.	.	.	32d#\L	.	.	.
.	.	.	.	32c#\JJJ	.	.	.
!	!	!	!	!	!	!	!LO:DY:a
4BB\	.	8r<	>	8Bn\	-stra-	-tir	>
.	.	8A</ 8B< 8d#<	]]	8An\	-nio	mai	]]
=41	=41	=41	=41	=41	=41	=41	=41
2En\	.	8r	.	2G#X\	suol	più	.
.	.	8G#X</L 8Bn< 8en<	.	.	.	.	.
.	.	8G#</ 8B< 8e<	.	.	.	.	.
.	.	8G#</J 8B< 8e<	.	.	.	.	.
4C#X/	.	8r<	.	4G#\	sa-	per	.
.	.	8G#</ 8c#X< 8e<	.	.	.	.	.
!!LO:PB:g=original
=42	=42	=42	=42	=42	=42	=42	=42
2D#X\	.	8r	.	(4.Bn\	-rò	non	.
.	.	8G#X/L 8Bn 8d#X	.	.	.	.	.
.	.	8G#/ 8B 8d#	.	.	.	.	.
!	!	!	!LO:HP:i:t=dim&colon;	!	!	!	!
.	.	8G#/J 8B 8d#	>	16F##X\	in	par-	.
.	.	.	.	16G#X\	e-	.	.
4Dn\	.	8r	>	8G#\	-stra-	-tir	.
.	.	8G#X/ 8Bn 8en	]]	8Dn\)	-nio	mai	.
=43	=43	=43	=43	=43	=43	=43	=43
!	!	!	!	!	!	!	!LO:HP:b
4E-X\	.	4Gn/ 4B-X 4e-X	.	4E-X\	suol	più	<
!LO:TX:a:i:t=rall&colon;	!	!LO:TX:a:i:t=rall	!	!LO:TX:t=P:problem:klamra łukowa	!	!	!
4r	.	4r	.	12Fn\L	ah	.	.
.	.	.	.	12Gn\	.	.	.
.	.	.	.	12A-X\J	.	.	[
!	!	!	!	!	!	!	!LO:HP:b
4r;>	.	4r;>	.	8B-;>\	.	.	>
*	*	*	*	*	*	*ij	*
.	.	.	.	8c\	ad-	ad-	]]
=44	=44	=44	=44	=44	=44	=44	=44
!LO:N:vis=4	!	!LO:TX:b:t=atempo	!LO:DY:rj	!	!	!	!LO:HP:b
!	!	!	!	!LO:TX:b:t=a tempo	!	!	!
4.AA-\ 4.F	.	4.A-</ 4.d-	p <	2.d-\	-di-	-di-	<[
8AA-\L 8F	.	8A-</L 8d-	.	.	.	.	.
8AA-\ 8En	.	8G</ 8d-	.	.	.	.	.
8AA-\J 8E	.	8G</J 8d-	.	.	.	.	.
=45	=45	=45	=45	=45	=45	=45	=45
2AA-\ 2E-X	.	2A-</ 2c	[	4c\	-o	-o	.
*	*	*	*	*	*	*Xij	*
.	.	.	.	4r	.	.	.
4FF\ 4F	.	4A-</ 4c	.	4c\	ad-	.	.
=46	=46	=46	=46	=46	=46	=46	=46
4.CC\ 4.En	.	4.G</ 4.c	.	[2c\	-di-	.	.
8CC\L 8E	.	8G</L 8c	.	.	.	.	.
!	!	!	!	!	!	!	!LO:HP:b
8EE-X\ 8E-X	.	8G</ 8c	>	8c\L]	.	.	>
8EE-\J 8D-	.	8G</J 8B-<	]]	8B-\J	.	.	]]
!!LO:LB:g=original
=47	=47	=47	=47	=47	=47	=47	=47
*^	*	*^	*	*	*	*	*
2C/	2AA-\	.	2A-</	2A-<\	.	2A-\	-o	.	.
4r	4ryy	.	4r	4ryy	.	4r	.	.	.
*v	*v	*	*	*	*	*	*	*	*
*	*	*v	*v	*	*	*	*	*
=48	=48	=48	=48	=48	=48	=48	=48
!	!	!	!	!	!	!	!LO:HP:b
2AA-\ 2C	.	2E-</ 2A-<	<	2A-\	gior-	.	<
8BB-\L 8D-	.	8E-</L 8G<	[	8G\	-ni	.	.
8AA-\J 8C	.	8E-</J 8A-<	.	8A-\	fe-	.	[
=49	=49	=49	=49	=49	=49	=49	=49
!LO:N:vis=2	!	!	!	!	!	!	!
2.EE-\ 2.E-	.	4F#X</ 4An<	.	4An\	-li-	.	.
.	.	2G</ 2B-<	.	4B-\	-ci	.	.
.	.	.	.	8r	.	.	.
.	.	.	.	8B-\	pas-	.	.
=50	=50	=50	=50	=50	=50	=50	=50
!	!	!	!LO:DY:rj	!	!	!	!LO:DY:b:rj
4.AA-\ 4.E-	.	4.G-X</ 4.c<	f	4.c\	-ſa-	.	f
8AA-\L 8E-	.	8G-</L 8c<	<	8G-X\	-ti_in	.	.
8AA-\ 8C	.	8G-</ 8e-<	.	8B-\	un	.	.
8AA-\J 8C	.	8G-</J 8e-<	[[	8A-\	ba-	.	.
=51	=51	=51	=51	=51	=51	=51	=51
2DD-\ 2D-	.	4G-X<^^>/ 4e-	.	(4.A-\	-le-	.	.
.	.	8F<^^/L 8d-	.	.	.	.	.
.	.	16En<^^</L 16gn^^>	.	16B-\LL	.	.	.
.	.	16F<^^</JJ 16f^^>	.	16A-\JJ)	.	.	.
4DD-\ 4D-	.	8Gn<^^/L 8e-	.	8Gn\	-no	.	.
.	.	8F</J 8d-	.	8F\	ad-	.	.
!!LO:LB:g=original
=52	=52	=52	=52	=52	=52	=52	=52
*	*	*^	*	*	*	*	*
2.EE-\	.	4F</ 4d-	4F<\	.	4F\	-di-	.	.
.	.	2E-</ 2c	2E-<\	>	4E-\	-o	.	.
.	.	.	.	.	8r	.	.	.
.	.	.	.	]	8E-\	a-	.	.
*	*	*v	*v	*	*	*	*	*
=53	=53	=53	=53	=53	=53	=53	=53
!	!	!LO:TX:b:t=rall&colon;	!	!LO:TX:b:i:t=rall&colon;	!	!	!
2DD-^^\	.	2F-X<^^/ 2A-< 2B-<	.	2F-X^^>\	-di-	.	.
!	!	!	!LO:DY:rj	!	!	!	!LO:DY:b:rj
4EE-;<\	.	4E-<;>/ 4G< 4d-<	p	4E-;\	.	.	p
=54	=54	=54	=54	=54	=54	=54	=54
!LO:TX:t=1mo	!	!LO:TX:t=1mo	!	!LO:TX:t=1mo	!	!	!
*>A1	*	*>A1	*	*>A1	*	*	*
!LO:TX:a:t=segno	!	!LO:TX:t=segno	!	!LO:TX:t=segno	!	!	!
!LO:TX:b:t=segno	!	!	!	!	!	!	!
2.AA-;<\ 2.E-	.	2.A-<;>/ 2.c<	<[ >]	2.AA-;/	-o-	.	<[ >]
=55||	=55||	=55||	=55||	=55||	=55||	=55||	=55||
!LO:TX:t=2do	!	!LO:TX:t=2do	!	!LO:TX:t=2do	!	!	!
*>A2	*	*>A2	*	*>A2	*	*	*
[>2.AA-;<\ [>2.E-	.	[>2.A-<;>/ [>2.c<	<[ >]	[>2.AA-;/	-o	.	<[ >]
=56	=56	=56	=56	=56	=56	=56	=56
*>B	*	*>B	*	*>B	*	*	*
*^	*	*^	*	*	*	*	*
4E-\]	4AA-\]	.	4A-</] 4c<]	2ryy	.	4AA-/]	.	.	.
4r	4ryy	.	4r	.	.	4r	.	.	.
!	!	!	!	!	!LO:DY:rj	!	!	!	!
4E-/	4AA-\	.	(>4e-/	4c\	pp >	4r	.	.	.
=57	=57	=57	=57	=57	=57	=57	=57	=57	=57
!LO:TX:t=Fin	!	!	!	!	!	!	!	!	!
2.E-/	2.AA-;<\	.	2.a-;>/)	2.c\	]	2.r;	.	.	.
*v	*v	*	*	*	*	*	*	*	*
*	*	*v	*v	*	*	*	*	*
!!LO:PB:g=original
==	==	==	==	==	==	==	==
*-	*-	*-	*-	*-	*-	*-	*-
!!!system-decoration: s1{(s2,s3)}
!!!RDF**kern: < = below
!!!RDF**kern: > = above
!!!ENC: Marta Chmielewska
!!!END: 2021-06-08
!!!ENC: Andrzej Gręziak
!!!END: 2021-05-28
